icons/image.svg

<svg width="24" height="24" viewBox="0 0 24 24" fill="none" xmlns="http://www.w3.org/2000/svg">
<path fill-rule="evenodd" clip-rule="evenodd" d="M2 4C2 3.44772 2.44772 3 3 3H21C21.5523 3 22 3.44772 22 4V20C22 20.5523 21.5523 21 21 21H3C2.44772 21 2 20.5523 2 20V4ZM4 5V18.5858L13.2929 9.29289C13.6834 8.90237 14.3166 8.90237 14.7071 9.29289L20 14.5858V5H4ZM20 17.4142L14 11.4142L6.41421 19H20V17.4142ZM6 9C6 7.89543 6.89543 7 8 7C9.10457 7 10 7.89543 10 9C10 10.1046 9.10457 11 8 11C6.89543 11 6 10.1046 6 9Z" fill="black"/>
</svg>

<svg
  width="24"
  height="24"
  viewBox="0 0 24 24"
  xmlns="http://www.w3.org/2000/svg"
>
  <path
    fill-rule="evenodd"
    clip-rule="evenodd"
    d="M2 4a1 1 0 0 1 1-1h18a1 1 0 0 1 1 1v16a1 1 0 0 1-1 1H3a1 1 0 0 1-1-1V4zm2 1v13.586l9.293-9.293a1 1 0 0 1 1.414 0L20 14.586V5H4zm16 12.414l-6-6L6.414 19H20v-1.586zM6 9a2 2 0 1 1 4 0 2 2 0 0 1-4 0z"
  />
</svg>
